X: 1
T:Raveled Hank of Yarn
M:2/2
L:1/8
S:Chris Norman
R:Reel
K:G
B3d A3B|GB~B2 GB~B2|dA~A2 dAeg|fdcA BG~G2|
B3d A3B|GB~B2 GB~B2|dA~A2 dAeg|fdcA G4:||
||:dG~G2 dGBd|g3a bgeg|dG~G2 dGBd|egdB BA~A2|
dG~G2 dGBd|g3a bgeg|g3a bgaf|gedB G4:||
